public/avatar/hat/5.svg

<svg xmlns:xlink="http://www.w3.org/1999/xlink" height="92.9" width="100.7" xmlns="http://www.w3.org/2000/svg"><use height="20.25" transform="translate(23.85 33.05)" width="29.6" xlink:href="#a"/><defs><g id="a" transform="translate(14.8 10.2)"><use height="20.25" transform="translate(-14.8 -10.2)" width="13.2" xlink:href="#b"/><use height="20.25" transform="matrix(-1 0 0 1 14.8 -10.2)" width="13.2" xlink:href="#b"/></g><g id="c"><path d="m-3.8-1.9.05.05q2.15 1 3.85 4.4-2.25.85-2.6-.65.4-.85-1.25-3.75l-.1-.05v-.05q-5.2.05-6.65-5.1-1.5-5.2 3-9.85-.1 8.1 3.65 14.95l.05.05" fill="#cce4ff" fill-rule="evenodd" transform="translate(11.4 17.4)"/><path d="M.1 2.55q-1.7-3.4-3.85-4.4l-.05-.05-.05-.05Q-7.6-8.8-7.5-16.9q1.2 5.05 4.25 9.7Q-.2-2.6 1.3.4 1.85 1.9.1 2.55" fill="#fff" fill-rule="evenodd" transform="translate(11.4 17.4)"/><path d="M1.3.4q-1.5-3-4.55-7.6-3.05-4.65-4.25-9.7-4.5 4.65-3 9.85 1.45 5.15 6.65 5.1m.1.1Q-2.1 1.05-2.5 1.9" fill="none" stroke="#69c" stroke-linecap="round" stroke-linejoin="round" transform="translate(11.4 17.4)"/></g><use height="20.25" width="13.2" xlink:href="#c" id="b"/></defs></svg>

<?xml version="1.0" encoding="UTF-8" standalone="no"?>
<svg xmlns:xlink="http://www.w3.org/1999/xlink" height="92.9px" width="100.7px" xmlns="http://www.w3.org/2000/svg">
  <g transform="matrix(1.0, 0.0, 0.0, 1.0, 38.65, 49.75)">
    <use height="20.25" transform="matrix(1.0, 0.0, 0.0, 1.0, -14.8, -16.7)" width="29.6" xlink:href="#sprite0"/>
  </g>
  <defs>
    <g id="sprite0" transform="matrix(1.0, 0.0, 0.0, 1.0, 14.8, 10.2)">
      <use height="20.25" transform="matrix(1.0, 0.0, 0.0, 1.0, -14.8, -10.2)" width="13.2" xlink:href="#sprite1"/>
      <use height="20.25" transform="matrix(-1.0, 0.0, 0.0, 1.0, 14.8, -10.2)" width="13.2" xlink:href="#sprite1"/>
    </g>
    <g id="sprite1" transform="matrix(1.0, 0.0, 0.0, 1.0, 11.4, 17.4)">
      <use height="20.25" transform="matrix(1.0, 0.0, 0.0, 1.0, -11.4, -17.4)" width="13.2" xlink:href="#shape0"/>
    </g>
    <g id="shape0" transform="matrix(1.0, 0.0, 0.0, 1.0, 11.4, 17.4)">
      <path d="M-3.8 -1.9 L-3.75 -1.85 Q-1.6 -0.85 0.1 2.55 -2.15 3.4 -2.5 1.9 -2.1 1.05 -3.75 -1.85 L-3.85 -1.9 -3.85 -1.95 Q-9.05 -1.9 -10.5 -7.05 -12.0 -12.25 -7.5 -16.9 -7.6 -8.8 -3.85 -1.95 L-3.8 -1.9" fill="#cce4ff" fill-rule="evenodd" stroke="none"/>
      <path d="M0.1 2.55 Q-1.6 -0.85 -3.75 -1.85 L-3.8 -1.9 -3.85 -1.95 Q-7.6 -8.8 -7.5 -16.9 -6.3 -11.85 -3.25 -7.2 -0.2 -2.6 1.3 0.4 1.85 1.9 0.1 2.55" fill="#ffffff" fill-rule="evenodd" stroke="none"/>
      <path d="M1.3 0.4 Q-0.2 -2.6 -3.25 -7.2 -6.3 -11.85 -7.5 -16.9 -12.0 -12.25 -10.5 -7.05 -9.05 -1.9 -3.85 -1.95 M-3.75 -1.85 Q-2.1 1.05 -2.5 1.9" fill="none" stroke="#6699cc" stroke-linecap="round" stroke-linejoin="round" stroke-width="1.0"/>
    </g>
  </defs>
</svg>
